X:307
T:Waltz. RH.307
R:Waltz
S:Rev.R.Harrison’s MS,c1815,Cumbria
O:England
A:Temple Sowerby,Cumbria
Z:vmp.Simon Wilson. Review PJH, 2008.
M:3/8
L:1/16
Q:3/8=50
K:D
A2|d2(d2f2)|d2d2f2|(a4g2)|(f2d2)A2|\
(d2df)d2|(d2df)d2|(agf edc)|d4:|!
|:(fg)|(a4g2)|(b4a2)|a2b2c’2|d’2d2 (fg)|\
a4f2|b2abc’d’|a2g2f2|e4(fg)|!
(a2fafa)|(b2gbgb)|agfgab|a2bc’d’a|\
b6|a2.g2.f2.|e2.d2.c2.|d6:|!
|:a2|d’6|c’2b2a2|c’6|a2(g2f2)|\
a6|(f2e2d2)|(cdedcB)|A2a4|!
d’6|(c’2b2a2)|b6|a2g2f2|\
g6|(fedefg)|g2A2c2|d4:|

